assets/1. P-Z/Star-struck/Color/Star-struck-color.svg

<svg width="100%" height="100%" viewBox="0 0 32 32" fill="none" xmlns="http://www.w3.org/2000/svg">
<g clip-path="url(#clip0_23_461)">
<path d="M15.9989 29.9978C25.3333 29.9978 29.9978 23.7303 29.9978 15.9989C29.9978 8.26751 25.3333 2 15.9989 2C6.66443 2 2 8.26751 2 15.9989C2 23.7303 6.66443 29.9978 15.9989 29.9978Z" fill="url(#paint0_radial_23_461)"/>
<path d="M15.9989 29.9978C25.3333 29.9978 29.9978 23.7303 29.9978 15.9989C29.9978 8.26751 25.3333 2 15.9989 2C6.66443 2 2 8.26751 2 15.9989C2 23.7303 6.66443 29.9978 15.9989 29.9978Z" fill="url(#paint1_radial_23_461)"/>
<path d="M15.9989 29.9978C25.3333 29.9978 29.9978 23.7303 29.9978 15.9989C29.9978 8.26751 25.3333 2 15.9989 2C6.66443 2 2 8.26751 2 15.9989C2 23.7303 6.66443 29.9978 15.9989 29.9978Z" fill="url(#paint2_radial_23_461)"/>
<path d="M15.9989 29.9978C25.3333 29.9978 29.9978 23.7303 29.9978 15.9989C29.9978 8.26751 25.3333 2 15.9989 2C6.66443 2 2 8.26751 2 15.9989C2 23.7303 6.66443 29.9978 15.9989 29.9978Z" fill="url(#paint3_radial_23_461)" fill-opacity="0.6"/>
<path d="M15.9989 29.9978C25.3333 29.9978 29.9978 23.7303 29.9978 15.9989C29.9978 8.26751 25.3333 2 15.9989 2C6.66443 2 2 8.26751 2 15.9989C2 23.7303 6.66443 29.9978 15.9989 29.9978Z" fill="url(#paint4_radial_23_461)"/>
<path d="M15.9989 29.9978C25.3333 29.9978 29.9978 23.7303 29.9978 15.9989C29.9978 8.26751 25.3333 2 15.9989 2C6.66443 2 2 8.26751 2 15.9989C2 23.7303 6.66443 29.9978 15.9989 29.9978Z" fill="url(#paint5_radial_23_461)"/>
<path d="M15.9989 29.9978C25.3333 29.9978 29.9978 23.7303 29.9978 15.9989C29.9978 8.26751 25.3333 2 15.9989 2C6.66443 2 2 8.26751 2 15.9989C2 23.7303 6.66443 29.9978 15.9989 29.9978Z" fill="url(#paint6_radial_23_461)"/>
<path d="M15.9989 29.9978C25.3333 29.9978 29.9978 23.7303 29.9978 15.9989C29.9978 8.26751 25.3333 2 15.9989 2C6.66443 2 2 8.26751 2 15.9989C2 23.7303 6.66443 29.9978 15.9989 29.9978Z" fill="url(#paint7_radial_23_461)"/>
<g filter="url(#filter0_f_23_461)">
<path d="M25.5 18L19 12.5L25 11L25.5 18Z" fill="url(#paint8_linear_23_461)"/>
</g>
<g filter="url(#filter1_f_23_461)">
<path d="M13.5 14.5L7 14L11.5 10L13.5 14.5Z" fill="url(#paint9_linear_23_461)"/>
</g>
<g filter="url(#filter2_f_23_461)">
<path d="M16.5 6H18.5C20.1 7.6 19.8333 10.6667 19.5 12L16.5 13L18 9.5L16.5 6Z" fill="url(#paint10_radial_23_461)"/>
</g>
<g filter="url(#filter3_f_23_461)">
<path d="M3 8H5C6.6 9.6 6.33333 12.6667 6 14L3 16L4.5 11.5L3 8Z" fill="url(#paint11_radial_23_461)"/>
</g>
<path d="M8.62398 12.8646L5.57387 15.2369C5.4703 15.3175 5.32052 15.2356 5.3324 15.105L5.63107 11.8196C5.7117 10.9326 5.26156 10.0815 4.48301 9.64901L2.5004 8.54757C2.13219 8.343 2.16643 7.80269 2.55753 7.64625L5.08694 6.63448C5.79291 6.3521 6.3085 5.73226 6.45762 4.98667L6.92933 2.6281C7.00901 2.22972 7.52245 2.11326 7.7662 2.43827L9.13038 4.25717C9.59861 4.88148 10.3569 5.21859 11.1341 5.14793L14.6266 4.83044C14.756 4.81867 14.8381 4.96585 14.7601 5.06982L12.9744 7.45081C12.5033 8.079 12.3937 8.90737 12.6853 9.63644L14.0965 13.1643L10.4466 12.4344C9.80541 12.3061 9.14014 12.4632 8.62398 12.8646Z" fill="url(#paint12_linear_23_461)" stroke="url(#paint13_linear_23_461)" stroke-width="0.5"/>
<path d="M23.376 12.8646L26.4261 15.2369C26.5297 15.3175 26.6795 15.2356 26.6676 15.105L26.3689 11.8196C26.2883 10.9326 26.7384 10.0815 27.517 9.64901L29.4996 8.54757C29.8678 8.343 29.8336 7.80269 29.4425 7.64625L26.9131 6.63448C26.2071 6.3521 25.6915 5.73226 25.5424 4.98667L25.0707 2.6281C24.991 2.22972 24.4776 2.11326 24.2338 2.43827L22.8696 4.25717C22.4014 4.88148 21.6431 5.21859 20.8659 5.14793L17.3734 4.83044C17.244 4.81867 17.1619 4.96585 17.2399 5.06982L19.0256 7.45081C19.4967 8.079 19.6063 8.90737 19.3147 9.63644L17.9035 13.1643L21.5534 12.4344C22.1946 12.3061 22.8599 12.4632 23.376 12.8646Z" fill="url(#paint14_linear_23_461)" stroke="url(#paint15_linear_23_461)" stroke-width="0.5"/>
<path d="M16 26C7 26 7 17 7 17H25C25 17 25 26 16 26Z" fill="url(#paint16_radial_23_461)"/>
<path d="M8 17.5V17H24V17.5C24 18.0523 23.5523 18.5 23 18.5H9C8.44772 18.5 8 18.0523 8 17.5Z" fill="url(#paint17_linear_23_461)"/>
</g>
<defs>
<filter id="filter0_f_23_461" x="18" y="10" width="8.5" height="9" filterUnits="userSpaceOnUse" color-interpolation-filters="sRGB">
<feFlood flood-opacity="0" result="BackgroundImageFix"/>
<feBlend mode="normal" in="SourceGraphic" in2="BackgroundImageFix" result="shape"/>
<feGaussianBlur stdDeviation="0.5" result="effect1_foregroundBlur_23_461"/>
</filter>
<filter id="filter1_f_23_461" x="6" y="9" width="8.5" height="6.5" filterUnits="userSpaceOnUse" color-interpolation-filters="sRGB">
<feFlood flood-opacity="0" result="BackgroundImageFix"/>
<feBlend mode="normal" in="SourceGraphic" in2="BackgroundImageFix" result="shape"/>
<feGaussianBlur stdDeviation="0.5" result="effect1_foregroundBlur_23_461"/>
</filter>
<filter id="filter2_f_23_461" x="15.5" y="5" width="5.25293" height="9" filterUnits="userSpaceOnUse" color-interpolation-filters="sRGB">
<feFlood flood-opacity="0" result="BackgroundImageFix"/>
<feBlend mode="normal" in="SourceGraphic" in2="BackgroundImageFix" result="shape"/>
<feGaussianBlur stdDeviation="0.5" result="effect1_foregroundBlur_23_461"/>
</filter>
<filter id="filter3_f_23_461" x="2" y="7" width="5.25293" height="10" filterUnits="userSpaceOnUse" color-interpolation-filters="sRGB">
<feFlood flood-opacity="0" result="BackgroundImageFix"/>
<feBlend mode="normal" in="SourceGraphic" in2="BackgroundImageFix" result="shape"/>
<feGaussianBlur stdDeviation="0.5" result="effect1_foregroundBlur_23_461"/>
</filter>
<radialGradient id="paint0_radial_23_461" cx="0" cy="0" r="1" gradientUnits="userSpaceOnUse" gradientTransform="translate(25.5 9) rotate(132.839) scale(37.5033)">
<stop stop-color="#FFF478"/>
<stop offset="0.474827" stop-color="#FFB02E"/>
<stop offset="1" stop-color="#F70A8D"/>
</radialGradient>
<radialGradient id="paint1_radial_23_461" cx="0" cy="0" r="1" gradientUnits="userSpaceOnUse" gradientTransform="translate(25.5 9) rotate(131.878) scale(38.9487)">
<stop stop-color="#FFF478"/>
<stop offset="0.474827" stop-color="#FFB02E"/>
<stop offset="1" stop-color="#F70A8D"/>
</radialGradient>
<radialGradient id="paint2_radial_23_461" cx="0" cy="0" r="1" gradientUnits="userSpaceOnUse" gradientTransform="translate(16 12.5) rotate(101.31) scale(17.8466 22.8581)">
<stop offset="0.787821" stop-color="#F59639" stop-opacity="0"/>
<stop offset="0.972509" stop-color="#FF7DCE"/>
</radialGradient>
<radialGradient id="paint3_radial_23_461" cx="0" cy="0" r="1" gradientUnits="userSpaceOnUse" gradientTransform="translate(18 14) rotate(135) scale(41.0122)">
<stop offset="0.314853" stop-opacity="0"/>
<stop offset="1"/>
</radialGradient>
<radialGradient id="paint4_radial_23_461" cx="0" cy="0" r="1" gradientUnits="userSpaceOnUse" gradientTransform="translate(16 17) rotate(77.692) scale(28.1469)">
<stop offset="0.507903" stop-color="#7D6133" stop-opacity="0"/>
<stop offset="1" stop-color="#715B32"/>
</radialGradient>
<radialGradient id="paint5_radial_23_461" cx="0" cy="0" r="1" gradientUnits="userSpaceOnUse" gradientTransform="translate(16.5 16.5) rotate(55.7131) scale(13.3135 9.65032)">
<stop stop-color="#FFB849"/>
<stop offset="1" stop-color="#FFB847" stop-opacity="0"/>
</radialGradient>
<radialGradient id="paint6_radial_23_461" cx="0" cy="0" r="1" gradientUnits="userSpaceOnUse" gradientTransform="translate(20.5 18) rotate(9.86581) scale(11.6726)">
<stop stop-color="#FFA64B"/>
<stop offset="0.900412" stop-color="#FFAE46" stop-opacity="0"/>
</radialGradient>
<radialGradient id="paint7_radial_23_461" cx="0" cy="0" r="1" gradientUnits="userSpaceOnUse" gradientTransform="translate(17.5 15) rotate(43.9708) scale(59.0529)">
<stop offset="0.185425" stop-opacity="0"/>
<stop offset="1" stop-opacity="0.4"/>
</radialGradient>
<linearGradient id="paint8_linear_23_461" x1="23.5" y1="11.5" x2="21.8141" y2="14.6672" gradientUnits="userSpaceOnUse">
<stop offset="0.370082" stop-color="#EC812A"/>
<stop offset="1" stop-color="#FBA84C" stop-opacity="0"/>
</linearGradient>
<linearGradient id="paint9_linear_23_461" x1="10.5" y1="11.5" x2="10.2504" y2="14.0248" gradientUnits="userSpaceOnUse">
<stop stop-color="#C85F27"/>
<stop offset="1" stop-color="#C85F27" stop-opacity="0"/>
</linearGradient>
<radialGradient id="paint10_radial_23_461" cx="0" cy="0" r="1" gradientUnits="userSpaceOnUse" gradientTransform="translate(20 10) rotate(146.31) scale(5.40833)">
<stop offset="0.116396" stop-color="#EC812A"/>
<stop offset="1" stop-color="#FBA84C" stop-opacity="0"/>
</radialGradient>
<radialGradient id="paint11_radial_23_461" cx="0" cy="0" r="1" gradientUnits="userSpaceOnUse" gradientTransform="translate(7 13) rotate(158.199) scale(5.38516)">
<stop stop-color="#CC7521"/>
<stop offset="1" stop-color="#E6872B" stop-opacity="0"/>
</radialGradient>
<linearGradient id="paint12_linear_23_461" x1="7.5" y1="1" x2="10" y2="15" gradientUnits="userSpaceOnUse">
<stop stop-color="#7912B2"/>
<stop offset="1" stop-color="#CF1DA1"/>
</linearGradient>
<linearGradient id="paint13_linear_23_461" x1="15" y1="6" x2="8.5" y2="8.5" gradientUnits="userSpaceOnUse">
<stop stop-color="#A82D9C"/>
<stop offset="1" stop-color="#BF33B1" stop-opacity="0"/>
</linearGradient>
<linearGradient id="paint14_linear_23_461" x1="22" y1="2.5" x2="22.5" y2="14.5" gradientUnits="userSpaceOnUse">
<stop stop-color="#7912B2"/>
<stop offset="1" stop-color="#CF1DA1"/>
</linearGradient>
<linearGradient id="paint15_linear_23_461" x1="29.5" y1="6" x2="23.5" y2="6.5" gradientUnits="userSpaceOnUse">
<stop stop-color="#B51AA6"/>
<stop offset="1" stop-color="#BF33B1" stop-opacity="0"/>
</linearGradient>
<radialGradient id="paint16_radial_23_461" cx="0" cy="0" r="1" gradientUnits="userSpaceOnUse" gradientTransform="translate(16 28) rotate(-90) scale(11 22)">
<stop stop-color="#F70A8D"/>
<stop offset="1" stop-color="#89029C"/>
</radialGradient>
<linearGradient id="paint17_linear_23_461" x1="16" y1="17" x2="16" y2="18.5" gradientUnits="userSpaceOnUse">
<stop stop-color="#D5A8FE"/>
<stop offset="1" stop-color="white"/>
</linearGradient>
<clipPath id="clip0_23_461">
<rect width="32" height="32" fill="white"/>
</clipPath>
</defs>
</svg>

<svg width="100%" height="100%" viewBox="0 0 32 32" xmlns="http://www.w3.org/2000/svg"><g clip-path="url(#a)"><path fill="url(#b)" d="M15.999 29.998c9.334 0 13.999-6.268 13.999-14 0-7.73-4.665-13.998-14-13.998C6.665 2 2 8.268 2 15.999s4.664 13.999 13.999 13.999"/><path fill="url(#c)" d="M15.999 29.998c9.334 0 13.999-6.268 13.999-14 0-7.73-4.665-13.998-14-13.998C6.665 2 2 8.268 2 15.999s4.664 13.999 13.999 13.999"/><path fill="url(#d)" d="M15.999 29.998c9.334 0 13.999-6.268 13.999-14 0-7.73-4.665-13.998-14-13.998C6.665 2 2 8.268 2 15.999s4.664 13.999 13.999 13.999"/><path fill="url(#e)" fill-opacity=".6" d="M15.999 29.998c9.334 0 13.999-6.268 13.999-14 0-7.73-4.665-13.998-14-13.998C6.665 2 2 8.268 2 15.999s4.664 13.999 13.999 13.999"/><path fill="url(#f)" d="M15.999 29.998c9.334 0 13.999-6.268 13.999-14 0-7.73-4.665-13.998-14-13.998C6.665 2 2 8.268 2 15.999s4.664 13.999 13.999 13.999"/><path fill="url(#g)" d="M15.999 29.998c9.334 0 13.999-6.268 13.999-14 0-7.73-4.665-13.998-14-13.998C6.665 2 2 8.268 2 15.999s4.664 13.999 13.999 13.999"/><path fill="url(#h)" d="M15.999 29.998c9.334 0 13.999-6.268 13.999-14 0-7.73-4.665-13.998-14-13.998C6.665 2 2 8.268 2 15.999s4.664 13.999 13.999 13.999"/><path fill="url(#i)" d="M15.999 29.998c9.334 0 13.999-6.268 13.999-14 0-7.73-4.665-13.998-14-13.998C6.665 2 2 8.268 2 15.999s4.664 13.999 13.999 13.999"/><g filter="url(#j)"><path fill="url(#k)" d="M25.5 18 19 12.5l6-1.5z"/></g><g filter="url(#l)"><path fill="url(#m)" d="M13.5 14.5 7 14l4.5-4z"/></g><g filter="url(#n)"><path fill="url(#o)" d="M16.5 6h2c1.6 1.6 1.333 4.667 1 6l-3 1L18 9.5z"/></g><g filter="url(#p)"><path fill="url(#q)" d="M3 8h2c1.6 1.6 1.333 4.667 1 6l-3 2 1.5-4.5z"/></g><path fill="url(#r)" stroke="url(#s)" stroke-width=".5" d="m8.624 12.865-3.05 2.372a.15.15 0 0 1-.242-.132l.3-3.285a2.25 2.25 0 0 0-1.149-2.171L2.5 8.548a.5.5 0 0 1 .058-.902l2.529-1.012a2.25 2.25 0 0 0 1.37-1.647l.472-2.359a.47.47 0 0 1 .837-.19l1.364 1.82a2.25 2.25 0 0 0 2.004.89l3.493-.318a.15.15 0 0 1 .133.24l-1.786 2.38a2.25 2.25 0 0 0-.289 2.186l1.412 3.528-3.65-.73a2.25 2.25 0 0 0-1.823.43Z"/><path fill="url(#t)" stroke="url(#u)" stroke-width=".5" d="m23.376 12.865 3.05 2.372a.15.15 0 0 0 .242-.132l-.3-3.285a2.25 2.25 0 0 1 1.149-2.171L29.5 8.548a.5.5 0 0 0-.058-.902l-2.529-1.012a2.25 2.25 0 0 1-1.37-1.647l-.472-2.359a.47.47 0 0 0-.837-.19l-1.364 1.82a2.25 2.25 0 0 1-2.004.89l-3.493-.318a.15.15 0 0 0-.133.24l1.786 2.38a2.25 2.25 0 0 1 .289 2.186l-1.412 3.528 3.65-.73a2.25 2.25 0 0 1 1.823.43Z"/><path fill="url(#v)" d="M16 26c-9 0-9-9-9-9h18s0 9-9 9"/><path fill="url(#w)" d="M8 17.5V17h16v.5a1 1 0 0 1-1 1H9a1 1 0 0 1-1-1"/></g><defs><radialGradient id="b" cx="0" cy="0" r="1" gradientTransform="rotate(132.839 10.786 10.065)scale(37.5033)" gradientUnits="userSpaceOnUse"><stop stop-color="#FFF478"/><stop offset=".475" stop-color="#FFB02E"/><stop offset="1" stop-color="#F70A8D"/></radialGradient><radialGradient id="c" cx="0" cy="0" r="1" gradientTransform="rotate(131.878 10.74 10.193)scale(38.9487)" gradientUnits="userSpaceOnUse"><stop stop-color="#FFF478"/><stop offset=".475" stop-color="#FFB02E"/><stop offset="1" stop-color="#F70A8D"/></radialGradient><radialGradient id="d" cx="0" cy="0" r="1" gradientTransform="rotate(101.31 2.876 12.808)scale(17.8466 22.8581)" gradientUnits="userSpaceOnUse"><stop offset=".788" stop-color="#F59639" stop-opacity="0"/><stop offset=".973" stop-color="#FF7DCE"/></radialGradient><radialGradient id="e" cx="0" cy="0" r="1" gradientTransform="matrix(-29 29 -29 -29 18 14)" gradientUnits="userSpaceOnUse"><stop offset=".315" stop-opacity="0"/><stop offset="1"/></radialGradient><radialGradient id="f" cx="0" cy="0" r="1" gradientTransform="rotate(77.692 -2.555 18.434)scale(28.1469)" gradientUnits="userSpaceOnUse"><stop offset=".508" stop-color="#7D6133" stop-opacity="0"/><stop offset="1" stop-color="#715B32"/></radialGradient><radialGradient id="g" cx="0" cy="0" r="1" gradientTransform="rotate(55.713 -7.36 23.86)scale(13.3135 9.65032)" gradientUnits="userSpaceOnUse"><stop stop-color="#FFB849"/><stop offset="1" stop-color="#FFB847" stop-opacity="0"/></radialGradient><radialGradient id="h" cx="0" cy="0" r="1" gradientTransform="matrix(11.49998 2 -2 11.49998 20.5 18)" gradientUnits="userSpaceOnUse"><stop stop-color="#FFA64B"/><stop offset=".9" stop-color="#FFAE46" stop-opacity="0"/></radialGradient><radialGradient id="i" cx="0" cy="0" r="1" gradientTransform="rotate(43.971 -9.827 29.173)scale(59.0529)" gradientUnits="userSpaceOnUse"><stop offset=".185" stop-opacity="0"/><stop offset="1" stop-opacity=".4"/></radialGradient><radialGradient id="o" cx="0" cy="0" r="1" gradientTransform="matrix(-4.5 3 -3 -4.5 20 10)" gradientUnits="userSpaceOnUse"><stop offset=".116" stop-color="#EC812A"/><stop offset="1" stop-color="#FBA84C" stop-opacity="0"/></radialGradient><radialGradient id="q" cx="0" cy="0" r="1" gradientTransform="rotate(158.199 2.248 7.174)scale(5.38516)" gradientUnits="userSpaceOnUse"><stop stop-color="#CC7521"/><stop offset="1" stop-color="#E6872B" stop-opacity="0"/></radialGradient><radialGradient id="v" cx="0" cy="0" r="1" gradientTransform="matrix(0 -11 22 0 16 28)" gradientUnits="userSpaceOnUse"><stop stop-color="#F70A8D"/><stop offset="1" stop-color="#89029C"/></radialGradient><linearGradient id="k" x1="23.5" x2="21.814" y1="11.5" y2="14.667" gradientUnits="userSpaceOnUse"><stop offset=".37" stop-color="#EC812A"/><stop offset="1" stop-color="#FBA84C" stop-opacity="0"/></linearGradient><linearGradient id="m" x1="10.5" x2="10.25" y1="11.5" y2="14.025" gradientUnits="userSpaceOnUse"><stop stop-color="#C85F27"/><stop offset="1" stop-color="#C85F27" stop-opacity="0"/></linearGradient><linearGradient id="r" x1="7.5" x2="10" y1="1" y2="15" gradientUnits="userSpaceOnUse"><stop stop-color="#7912B2"/><stop offset="1" stop-color="#CF1DA1"/></linearGradient><linearGradient id="s" x1="15" x2="8.5" y1="6" y2="8.5" gradientUnits="userSpaceOnUse"><stop stop-color="#A82D9C"/><stop offset="1" stop-color="#BF33B1" stop-opacity="0"/></linearGradient><linearGradient id="t" x1="22" x2="22.5" y1="2.5" y2="14.5" gradientUnits="userSpaceOnUse"><stop stop-color="#7912B2"/><stop offset="1" stop-color="#CF1DA1"/></linearGradient><linearGradient id="u" x1="29.5" x2="23.5" y1="6" y2="6.5" gradientUnits="userSpaceOnUse"><stop stop-color="#B51AA6"/><stop offset="1" stop-color="#BF33B1" stop-opacity="0"/></linearGradient><linearGradient id="w" x1="16" x2="16" y1="17" y2="18.5" gradientUnits="userSpaceOnUse"><stop stop-color="#D5A8FE"/><stop offset="1" stop-color="#fff"/></linearGradient><filter id="j" width="8.5" height="9" x="18" y="10" color-interpolation-filters="sRGB" filterUnits="userSpaceOnUse"><feFlood flood-opacity="0" result="BackgroundImageFix"/><feBlend in="SourceGraphic" in2="BackgroundImageFix" result="shape"/><feGaussianBlur result="effect1_foregroundBlur_23_461" stdDeviation=".5"/></filter><filter id="l" width="8.5" height="6.5" x="6" y="9" color-interpolation-filters="sRGB" filterUnits="userSpaceOnUse"><feFlood flood-opacity="0" result="BackgroundImageFix"/><feBlend in="SourceGraphic" in2="BackgroundImageFix" result="shape"/><feGaussianBlur result="effect1_foregroundBlur_23_461" stdDeviation=".5"/></filter><filter id="n" width="5.253" height="9" x="15.5" y="5" color-interpolation-filters="sRGB" filterUnits="userSpaceOnUse"><feFlood flood-opacity="0" result="BackgroundImageFix"/><feBlend in="SourceGraphic" in2="BackgroundImageFix" result="shape"/><feGaussianBlur result="effect1_foregroundBlur_23_461" stdDeviation=".5"/></filter><filter id="p" width="5.253" height="10" x="2" y="7" color-interpolation-filters="sRGB" filterUnits="userSpaceOnUse"><feFlood flood-opacity="0" result="BackgroundImageFix"/><feBlend in="SourceGraphic" in2="BackgroundImageFix" result="shape"/><feGaussianBlur result="effect1_foregroundBlur_23_461" stdDeviation=".5"/></filter><clipPath id="a"><path fill="#fff" d="M0 0h32v32H0z"/></clipPath></defs></svg>
